flaticon/interaction/database-2.svg

<svg xmlns="http://www.w3.org/2000/svg" width="32" height="32" viewBox="0 0 24 24">
    <path d="M 21.472656 14.21875 L 21.472656 3.789062 C 21.472656 3.710938 21.449219 3.644531 21.414062 3.582031 C 20.925781 1.777344 17.296875 0 10.949219 0 C 4.597656 0 0.96875 1.777344 0.484375 3.582031 C 0.445312 3.644531 0.421875 3.710938 0.421875 3.789062 L 0.421875 19.367188 C 0.421875 19.4375 0.4375 19.5 0.46875 19.558594 C 0.96875 21.621094 5.417969 23.15625 10.949219 23.15625 C 12.28125 23.15625 13.578125 23.066406 14.8125 22.886719 C 15.730469 23.582031 16.867188 24 18.105469 24 C 21.125 24 23.578125 21.542969 23.578125 18.527344 C 23.578125 16.777344 22.753906 15.222656 21.472656 14.21875 Z M 20.105469 13.4375 C 20.046875 13.414062 19.988281 13.390625 19.925781 13.371094 C 19.796875 13.324219 19.664062 13.285156 19.527344 13.246094 C 19.460938 13.230469 19.394531 13.210938 19.324219 13.195312 C 19.1875 13.164062 19.046875 13.140625 18.90625 13.117188 C 18.84375 13.109375 18.78125 13.097656 18.71875 13.089844 C 18.519531 13.066406 18.3125 13.050781 18.105469 13.050781 C 17.929688 13.050781 17.757812 13.0625 17.585938 13.078125 C 17.53125 13.085938 17.476562 13.09375 17.417969 13.101562 C 17.304688 13.113281 17.191406 13.132812 17.082031 13.152344 C 17.015625 13.164062 16.953125 13.179688 16.890625 13.195312 C 16.789062 13.21875 16.683594 13.242188 16.585938 13.273438 C 16.523438 13.289062 16.460938 13.308594 16.402344 13.328125 C 16.292969 13.363281 16.191406 13.402344 16.085938 13.445312 C 16.035156 13.464844 15.984375 13.480469 15.9375 13.503906 C 15.796875 13.5625 15.660156 13.628906 15.527344 13.699219 C 15.515625 13.707031 15.507812 13.710938 15.496094 13.71875 C 15.34375 13.800781 15.199219 13.886719 15.058594 13.984375 C 15.042969 13.992188 15.027344 14.007812 15.011719 14.015625 C 14.890625 14.101562 14.769531 14.191406 14.65625 14.28125 C 14.628906 14.304688 14.601562 14.328125 14.574219 14.351562 C 14.472656 14.4375 14.375 14.527344 14.28125 14.621094 C 14.25 14.648438 14.222656 14.675781 14.195312 14.703125 C 14.105469 14.796875 14.019531 14.894531 13.933594 14.992188 C 13.910156 15.023438 13.882812 15.050781 13.855469 15.082031 C 13.773438 15.1875 13.691406 15.296875 13.613281 15.40625 C 13.59375 15.433594 13.574219 15.460938 13.554688 15.488281 C 13.464844 15.625 13.378906 15.765625 13.296875 15.914062 C 13.292969 15.925781 13.289062 15.9375 13.28125 15.949219 C 13.210938 16.078125 13.144531 16.214844 13.085938 16.351562 C 13.050781 16.433594 13.019531 16.515625 12.988281 16.601562 C 12.964844 16.667969 12.9375 16.734375 12.914062 16.804688 C 12.882812 16.902344 12.855469 17 12.828125 17.101562 C 12.816406 17.132812 12.804688 17.164062 12.796875 17.199219 C 12.628906 17.210938 12.460938 17.21875 12.292969 17.226562 C 12.183594 17.234375 12.070312 17.242188 11.957031 17.246094 C 11.621094 17.253906 11.285156 17.261719 10.949219 17.261719 C 10.597656 17.261719 10.257812 17.257812 9.921875 17.246094 C 9.71875 17.238281 9.523438 17.222656 9.328125 17.210938 C 9.203125 17.207031 9.074219 17.199219 8.949219 17.191406 C 8.6875 17.171875 8.433594 17.148438 8.179688 17.121094 C 8.128906 17.117188 8.078125 17.113281 8.027344 17.109375 C 7.738281 17.078125 7.457031 17.039062 7.183594 17 C 7.171875 17 7.160156 16.996094 7.152344 16.996094 C 5.730469 16.785156 4.507812 16.464844 3.550781 16.085938 C 3.546875 16.082031 3.539062 16.078125 3.53125 16.078125 C 3.355469 16.007812 3.191406 15.933594 3.035156 15.859375 C 3.015625 15.851562 2.996094 15.839844 2.976562 15.832031 C 2.835938 15.765625 2.707031 15.695312 2.582031 15.625 C 2.550781 15.609375 2.519531 15.589844 2.488281 15.574219 C 2.382812 15.507812 2.28125 15.445312 2.1875 15.378906 C 2.152344 15.355469 2.113281 15.328125 2.078125 15.300781 C 2 15.242188 1.925781 15.183594 1.859375 15.125 C 1.820312 15.089844 1.78125 15.058594 1.746094 15.023438 C 1.691406 14.96875 1.640625 14.914062 1.597656 14.859375 C 1.5625 14.820312 1.53125 14.78125 1.5 14.742188 C 1.464844 14.691406 1.433594 14.640625 1.40625 14.589844 C 1.382812 14.546875 1.363281 14.503906 1.34375 14.460938 C 1.324219 14.410156 1.308594 14.359375 1.296875 14.3125 C 1.28125 14.242188 1.261719 14.171875 1.261719 14.105469 L 1.261719 10.648438 C 1.269531 10.65625 1.28125 10.664062 1.289062 10.667969 C 1.386719 10.757812 1.484375 10.84375 1.597656 10.925781 C 3.1875 12.121094 6.355469 13.050781 10.949219 13.050781 C 15.527344 13.050781 18.691406 12.125 20.285156 10.933594 C 20.40625 10.84375 20.515625 10.75 20.621094 10.65625 C 20.625 10.65625 20.628906 10.652344 20.632812 10.648438 L 20.632812 13.671875 C 20.609375 13.660156 20.585938 13.652344 20.5625 13.640625 C 20.414062 13.566406 20.261719 13.496094 20.105469 13.4375 Z M 1.515625 5.808594 C 1.640625 5.910156 1.777344 6.007812 1.925781 6.101562 C 1.957031 6.121094 1.992188 6.140625 2.023438 6.160156 C 2.148438 6.238281 2.277344 6.3125 2.417969 6.386719 C 2.46875 6.414062 2.519531 6.441406 2.570312 6.46875 C 2.726562 6.546875 2.886719 6.625 3.054688 6.695312 C 3.082031 6.710938 3.109375 6.722656 3.136719 6.734375 C 3.335938 6.816406 3.542969 6.898438 3.761719 6.976562 C 3.824219 6.996094 3.886719 7.015625 3.949219 7.039062 C 4.121094 7.097656 4.300781 7.152344 4.484375 7.207031 C 4.554688 7.226562 4.617188 7.246094 4.6875 7.265625 C 4.933594 7.332031 5.1875 7.398438 5.453125 7.457031 C 5.492188 7.464844 5.53125 7.472656 5.566406 7.480469 C 5.804688 7.53125 6.046875 7.582031 6.296875 7.625 C 6.382812 7.640625 6.46875 7.652344 6.554688 7.667969 C 6.796875 7.707031 7.042969 7.742188 7.292969 7.777344 C 7.359375 7.785156 7.421875 7.792969 7.484375 7.800781 C 7.800781 7.839844 8.125 7.871094 8.457031 7.902344 C 8.539062 7.90625 8.625 7.914062 8.707031 7.917969 C 8.972656 7.9375 9.246094 7.953125 9.523438 7.964844 C 9.625 7.972656 9.726562 7.976562 9.832031 7.980469 C 10.195312 7.992188 10.5625 8 10.949219 8 C 11.332031 8 11.699219 7.992188 12.0625 7.980469 C 12.167969 7.976562 12.265625 7.96875 12.371094 7.964844 C 12.648438 7.953125 12.921875 7.9375 13.1875 7.917969 C 13.269531 7.910156 13.355469 7.90625 13.4375 7.902344 C 13.769531 7.875 14.09375 7.839844 14.410156 7.800781 C 14.472656 7.792969 14.535156 7.785156 14.601562 7.777344 C 14.851562 7.742188 15.097656 7.707031 15.335938 7.667969 C 15.425781 7.652344 15.511719 7.640625 15.597656 7.625 C 15.847656 7.582031 16.089844 7.53125 16.328125 7.480469 C 16.363281 7.472656 16.402344 7.464844 16.441406 7.457031 C 16.707031 7.398438 16.960938 7.332031 17.207031 7.265625 C 17.277344 7.246094 17.339844 7.226562 17.410156 7.207031 C 17.59375 7.152344 17.773438 7.097656 17.945312 7.039062 C 18.007812 7.015625 18.070312 6.996094 18.132812 6.976562 C 18.351562 6.898438 18.558594 6.816406 18.757812 6.734375 C 18.785156 6.722656 18.8125 6.710938 18.839844 6.695312 C 19.007812 6.625 19.167969 6.546875 19.324219 6.46875 C 19.375 6.441406 19.425781 6.414062 19.476562 6.386719 C 19.617188 6.3125 19.746094 6.238281 19.871094 6.160156 C 19.902344 6.140625 19.9375 6.121094 19.96875 6.101562 C 20.117188 6.007812 20.25 5.910156 20.378906 5.808594 C 20.410156 5.785156 20.4375 5.757812 20.46875 5.734375 C 20.523438 5.6875 20.582031 5.644531 20.632812 5.597656 L 20.632812 9.050781 C 20.632812 9.121094 20.613281 9.191406 20.597656 9.257812 C 20.585938 9.308594 20.570312 9.359375 20.550781 9.40625 C 20.53125 9.449219 20.511719 9.492188 20.488281 9.539062 C 20.460938 9.585938 20.429688 9.636719 20.394531 9.6875 C 20.367188 9.726562 20.332031 9.769531 20.296875 9.808594 C 20.253906 9.863281 20.203125 9.917969 20.148438 9.96875 C 20.113281 10.003906 20.074219 10.039062 20.035156 10.074219 C 19.96875 10.132812 19.898438 10.191406 19.820312 10.246094 C 19.78125 10.273438 19.742188 10.300781 19.707031 10.328125 C 19.613281 10.390625 19.515625 10.457031 19.40625 10.519531 C 19.375 10.539062 19.34375 10.554688 19.3125 10.574219 C 19.1875 10.644531 19.058594 10.710938 18.921875 10.777344 C 18.902344 10.789062 18.878906 10.796875 18.855469 10.808594 C 18.703125 10.882812 18.539062 10.953125 18.367188 11.023438 C 18.359375 11.027344 18.347656 11.03125 18.339844 11.03125 C 17.386719 11.414062 16.167969 11.734375 14.746094 11.945312 C 14.734375 11.945312 14.722656 11.945312 14.714844 11.949219 C 14.4375 11.988281 14.160156 12.023438 13.871094 12.054688 C 13.820312 12.0625 13.765625 12.066406 13.714844 12.070312 C 13.464844 12.097656 13.207031 12.121094 12.945312 12.140625 C 12.824219 12.148438 12.695312 12.152344 12.570312 12.160156 C 12.371094 12.171875 12.175781 12.183594 11.972656 12.191406 C 11.636719 12.203125 11.296875 12.210938 10.949219 12.210938 C 10.597656 12.210938 10.257812 12.203125 9.921875 12.191406 C 9.71875 12.183594 9.523438 12.171875 9.328125 12.160156 C 9.203125 12.152344 9.074219 12.148438 8.949219 12.140625 C 8.6875 12.121094 8.433594 12.097656 8.179688 12.070312 C 8.128906 12.0625 8.078125 12.0625 8.027344 12.054688 C 7.738281 12.023438 7.457031 11.988281 7.183594 11.949219 C 7.171875 11.945312 7.160156 11.945312 7.152344 11.945312 C 5.730469 11.734375 4.507812 11.414062 3.550781 11.03125 C 3.546875 11.03125 3.539062 11.027344 3.53125 11.023438 C 3.355469 10.953125 3.191406 10.882812 3.035156 10.808594 C 3.015625 10.796875 2.996094 10.789062 2.976562 10.78125 C 2.835938 10.710938 2.707031 10.640625 2.582031 10.574219 C 2.550781 10.554688 2.519531 10.539062 2.488281 10.519531 C 2.382812 10.457031 2.28125 10.390625 2.1875 10.328125 C 2.152344 10.300781 2.113281 10.273438 2.078125 10.25 C 2 10.191406 1.925781 10.132812 1.859375 10.070312 C 1.820312 10.039062 1.78125 10.003906 1.746094 9.96875 C 1.691406 9.917969 1.640625 9.863281 1.597656 9.808594 C 1.5625 9.769531 1.53125 9.726562 1.5 9.6875 C 1.464844 9.636719 1.433594 9.585938 1.40625 9.535156 C 1.382812 9.492188 1.363281 9.449219 1.34375 9.40625 C 1.324219 9.359375 1.308594 9.308594 1.296875 9.257812 C 1.28125 9.191406 1.261719 9.121094 1.261719 9.050781 L 1.261719 5.597656 C 1.3125 5.644531 1.371094 5.6875 1.425781 5.734375 C 1.457031 5.757812 1.484375 5.785156 1.515625 5.808594 Z M 10.949219 0.84375 C 16.65625 0.84375 20.632812 2.507812 20.632812 4 C 20.632812 5.492188 16.65625 7.15625 10.949219 7.15625 C 5.242188 7.15625 1.261719 5.492188 1.261719 4 C 1.261719 2.507812 5.242188 0.84375 10.949219 0.84375 Z M 10.949219 22.316406 C 5.457031 22.316406 1.515625 20.757812 1.277344 19.300781 C 1.273438 19.28125 1.269531 19.261719 1.261719 19.246094 L 1.261719 15.703125 C 1.269531 15.710938 1.28125 15.714844 1.289062 15.722656 C 1.386719 15.808594 1.484375 15.894531 1.597656 15.976562 C 3.1875 17.175781 6.355469 18.105469 10.949219 18.105469 C 11.28125 18.105469 11.621094 18.097656 11.957031 18.085938 C 12.054688 18.082031 12.15625 18.078125 12.257812 18.070312 C 12.386719 18.066406 12.523438 18.0625 12.652344 18.054688 C 12.640625 18.214844 12.632812 18.371094 12.632812 18.527344 C 12.632812 18.707031 12.640625 18.882812 12.660156 19.058594 C 12.664062 19.117188 12.675781 19.171875 12.683594 19.226562 C 12.695312 19.347656 12.710938 19.464844 12.734375 19.582031 C 12.75 19.644531 12.765625 19.703125 12.777344 19.765625 C 12.804688 19.875 12.832031 19.984375 12.863281 20.09375 C 12.878906 20.148438 12.898438 20.207031 12.917969 20.265625 C 12.957031 20.375 12.996094 20.480469 13.039062 20.589844 C 13.058594 20.640625 13.082031 20.691406 13.105469 20.742188 C 13.152344 20.851562 13.203125 20.960938 13.261719 21.066406 C 13.285156 21.109375 13.308594 21.15625 13.332031 21.199219 C 13.394531 21.308594 13.457031 21.410156 13.523438 21.515625 C 13.550781 21.554688 13.578125 21.597656 13.605469 21.636719 C 13.675781 21.738281 13.75 21.835938 13.828125 21.929688 C 13.859375 21.972656 13.890625 22.011719 13.921875 22.050781 C 13.949219 22.082031 13.972656 22.117188 14 22.148438 C 13.015625 22.257812 11.992188 22.316406 10.949219 22.316406 Z M 18.105469 23.15625 C 16.992188 23.15625 15.972656 22.761719 15.171875 22.109375 C 15.050781 22.007812 14.933594 21.898438 14.820312 21.789062 C 14.777344 21.742188 14.734375 21.691406 14.691406 21.644531 C 14.628906 21.574219 14.5625 21.507812 14.503906 21.433594 C 14.453125 21.371094 14.410156 21.308594 14.363281 21.242188 C 14.316406 21.179688 14.269531 21.113281 14.226562 21.046875 C 14.179688 20.980469 14.136719 20.910156 14.097656 20.835938 C 14.058594 20.769531 14.019531 20.703125 13.984375 20.632812 C 13.949219 20.558594 13.914062 20.488281 13.878906 20.414062 C 13.847656 20.339844 13.816406 20.261719 13.785156 20.183594 C 13.757812 20.113281 13.730469 20.042969 13.707031 19.972656 C 13.679688 19.882812 13.65625 19.792969 13.632812 19.703125 C 13.613281 19.640625 13.59375 19.574219 13.582031 19.507812 C 13.558594 19.402344 13.542969 19.292969 13.527344 19.1875 C 13.519531 19.132812 13.507812 19.078125 13.5 19.023438 C 13.484375 18.859375 13.472656 18.695312 13.472656 18.527344 C 13.472656 18.382812 13.484375 18.238281 13.496094 18.097656 C 13.507812 17.960938 13.527344 17.820312 13.554688 17.675781 C 13.578125 17.5625 13.605469 17.449219 13.632812 17.339844 C 13.640625 17.308594 13.648438 17.277344 13.65625 17.246094 C 13.683594 17.15625 13.714844 17.0625 13.746094 16.972656 C 13.765625 16.925781 13.78125 16.875 13.800781 16.828125 C 13.828125 16.753906 13.863281 16.679688 13.894531 16.605469 C 13.921875 16.542969 13.953125 16.480469 13.984375 16.417969 C 14.015625 16.359375 14.046875 16.300781 14.078125 16.246094 C 14.121094 16.171875 14.164062 16.097656 14.210938 16.027344 C 14.238281 15.980469 14.269531 15.9375 14.296875 15.894531 C 14.355469 15.808594 14.417969 15.726562 14.484375 15.644531 C 14.507812 15.617188 14.527344 15.589844 14.550781 15.5625 C 14.636719 15.457031 14.730469 15.355469 14.824219 15.257812 C 14.828125 15.257812 14.832031 15.253906 14.832031 15.25 C 15.039062 15.046875 15.261719 14.863281 15.5 14.699219 C 15.527344 14.679688 15.558594 14.664062 15.585938 14.644531 C 15.675781 14.585938 15.765625 14.53125 15.859375 14.476562 C 15.902344 14.453125 15.945312 14.433594 15.988281 14.410156 C 16.070312 14.367188 16.152344 14.328125 16.238281 14.289062 C 16.289062 14.269531 16.339844 14.246094 16.390625 14.226562 C 16.472656 14.195312 16.554688 14.164062 16.636719 14.136719 C 16.691406 14.117188 16.746094 14.101562 16.804688 14.082031 C 16.886719 14.058594 16.972656 14.039062 17.054688 14.019531 C 17.113281 14.003906 17.167969 13.992188 17.226562 13.980469 C 17.320312 13.960938 17.414062 13.949219 17.511719 13.9375 C 17.5625 13.929688 17.609375 13.921875 17.660156 13.917969 C 17.808594 13.902344 17.953125 13.894531 18.105469 13.894531 C 18.25 13.894531 18.390625 13.902344 18.53125 13.917969 C 18.574219 13.921875 18.617188 13.925781 18.660156 13.929688 C 18.761719 13.941406 18.855469 13.957031 18.953125 13.976562 C 19 13.984375 19.046875 13.992188 19.09375 14.003906 C 19.195312 14.027344 19.296875 14.050781 19.398438 14.082031 C 19.429688 14.089844 19.464844 14.097656 19.5 14.109375 C 19.621094 14.148438 19.742188 14.195312 19.859375 14.242188 C 19.917969 14.265625 19.972656 14.292969 20.027344 14.316406 C 20.09375 14.347656 20.15625 14.378906 20.222656 14.410156 C 20.285156 14.445312 20.34375 14.476562 20.40625 14.511719 C 20.460938 14.542969 20.511719 14.574219 20.5625 14.605469 C 20.625 14.648438 20.6875 14.6875 20.75 14.730469 C 21.949219 15.566406 22.738281 16.957031 22.738281 18.527344 C 22.738281 21.078125 20.660156 23.15625 18.105469 23.15625 Z M 18.105469 23.15625"/>
    <path d="M 20.191406 16.441406 C 20.023438 16.277344 19.757812 16.277344 19.59375 16.441406 L 18.105469 17.929688 L 16.617188 16.441406 C 16.453125 16.277344 16.1875 16.277344 16.019531 16.441406 C 15.855469 16.605469 15.855469 16.875 16.019531 17.039062 L 17.511719 18.527344 L 16.019531 20.015625 C 15.855469 20.179688 15.855469 20.445312 16.019531 20.609375 C 16.101562 20.691406 16.210938 20.734375 16.320312 20.734375 C 16.425781 20.734375 16.535156 20.691406 16.617188 20.609375 L 18.105469 19.121094 L 19.59375 20.609375 C 19.675781 20.691406 19.785156 20.734375 19.890625 20.734375 C 20 20.734375 20.105469 20.691406 20.191406 20.609375 C 20.355469 20.445312 20.355469 20.179688 20.191406 20.015625 L 18.699219 18.527344 L 20.191406 17.039062 C 20.355469 16.875 20.355469 16.605469 20.191406 16.441406 Z M 20.191406 16.441406"/>
</svg>

<svg xmlns="http://www.w3.org/2000/svg" width="32" height="32" viewBox="0 0 24 24">
    <path d="M21.473 14.219V3.789a.412.412 0 0 0-.059-.207C20.926 1.777 17.297 0 10.95 0 4.598 0 .97 1.777.484 3.582a.38.38 0 0 0-.062.207v15.578c0 .07.016.133.047.192.5 2.062 4.949 3.597 10.48 3.597 1.332 0 2.63-.09 3.864-.27A5.432 5.432 0 0 0 18.105 24a5.479 5.479 0 0 0 5.473-5.473 5.46 5.46 0 0 0-2.105-4.308zm-1.368-.781a5.937 5.937 0 0 0-.578-.191c-.066-.017-.132-.036-.203-.052-.137-.03-.277-.054-.418-.078-.062-.008-.125-.02-.187-.027-.2-.024-.407-.04-.614-.04a5.71 5.71 0 0 0-.52.028l-.167.024a4.632 4.632 0 0 0-.336.05c-.066.012-.129.028-.191.043-.102.024-.207.047-.305.078a4.372 4.372 0 0 0-.5.172c-.05.02-.102.035-.149.059-.14.059-.277.125-.41.195-.011.008-.02.012-.03.02a4.496 4.496 0 0 0-.438.265c-.016.008-.032.024-.047.032a8.41 8.41 0 0 0-.356.265l-.082.07c-.101.086-.199.176-.293.27a1.744 1.744 0 0 0-.086.082c-.09.094-.175.192-.261.29-.024.03-.051.058-.079.089a9.987 9.987 0 0 0-.242.324l-.058.082c-.09.137-.176.278-.258.426a.139.139 0 0 1-.016.035 4.78 4.78 0 0 0-.293.653c-.023.066-.05.132-.074.203a6.582 6.582 0 0 0-.086.297.714.714 0 0 0-.031.097c-.168.012-.336.02-.504.028-.11.007-.223.015-.336.02-.336.007-.672.015-1.008.015-.351 0-.691-.004-1.027-.016-.203-.008-.399-.023-.594-.035a12.302 12.302 0 0 1-.379-.02 23.44 23.44 0 0 1-.77-.07l-.152-.012c-.289-.03-.57-.07-.843-.109-.012 0-.024-.004-.032-.004-1.422-.21-2.644-.531-3.601-.91a8.553 8.553 0 0 1-.516-.227c-.02-.007-.039-.02-.058-.027a6.173 6.173 0 0 1-.395-.207c-.031-.016-.062-.035-.094-.05-.105-.067-.207-.13-.3-.196a3.575 3.575 0 0 1-.328-.254c-.04-.035-.079-.066-.114-.102a1.878 1.878 0 0 1-.148-.164c-.036-.039-.067-.078-.098-.117a1.604 1.604 0 0 1-.094-.152c-.023-.043-.043-.086-.062-.13a1.288 1.288 0 0 1-.047-.148c-.016-.07-.035-.14-.035-.207v-3.457c.008.008.02.016.027.02.098.09.195.176.309.258 1.59 1.195 4.757 2.125 9.351 2.125 4.578 0 7.742-.926 9.336-2.117.121-.09.23-.184.336-.278.004 0 .008-.004.012-.008v3.024c-.024-.012-.047-.02-.07-.031a4.781 4.781 0 0 0-.458-.204zm-18.59-7.63c.126.102.262.2.41.294l.098.058c.125.078.254.152.395.227l.152.082c.157.078.317.156.485.226.027.016.054.028.082.04.199.081.406.163.625.242.062.02.125.039.187.062.172.059.352.113.535.168.07.02.133.04.204.059.246.066.5.132.765.191l.113.023c.239.051.48.102.73.145.087.016.173.027.259.043.242.039.488.074.738.11l.191.023c.317.039.641.07.973.101.082.004.168.012.25.016.266.02.54.035.816.047.102.008.204.012.309.015.363.012.73.02 1.117.02.383 0 .75-.008 1.114-.02.105-.003.203-.011.308-.015.277-.012.55-.027.816-.047.083-.008.168-.012.25-.016.333-.027.657-.062.973-.101l.192-.024c.25-.035.496-.07.734-.109.09-.016.176-.027.262-.043.25-.043.492-.094.73-.145l.113-.023c.266-.059.52-.125.766-.191.07-.02.133-.04.203-.059.184-.055.363-.11.535-.168.063-.023.125-.043.188-.062.219-.079.426-.16.625-.243.027-.011.055-.023.082-.039a7.917 7.917 0 0 0 1.031-.535c.031-.02.067-.039.098-.058.148-.094.281-.192.41-.293.031-.024.058-.051.09-.075.054-.046.113-.09.164-.136V9.05c0 .07-.02.14-.035.207a.938.938 0 0 1-.047.148l-.063.133a1.327 1.327 0 0 1-.191.27c-.043.054-.094.109-.149.16a2.434 2.434 0 0 1-.328.277c-.039.027-.078.055-.113.082-.094.063-.191.129-.3.192-.032.02-.063.035-.095.054-.125.07-.253.137-.39.203-.02.012-.043.02-.067.032a8.29 8.29 0 0 1-.488.214.072.072 0 0 1-.027.008c-.953.383-2.172.703-3.594.914-.012 0-.023 0-.031.004-.277.04-.555.074-.844.106-.05.008-.105.011-.156.015-.25.028-.508.051-.77.07-.12.008-.25.012-.375.02-.199.012-.394.024-.597.031-.336.012-.676.02-1.024.02-.351 0-.691-.008-1.027-.02-.203-.007-.399-.02-.594-.03-.125-.009-.254-.013-.379-.02a23.44 23.44 0 0 1-.77-.07c-.05-.008-.1-.008-.152-.016a24.87 24.87 0 0 1-.843-.106c-.012-.004-.024-.004-.032-.004-1.422-.21-2.644-.53-3.601-.914a8.585 8.585 0 0 1-.574-.25c-.141-.07-.27-.14-.395-.207-.031-.02-.062-.035-.094-.054a6.732 6.732 0 0 1-.3-.192 2.556 2.556 0 0 1-.328-.258 1.4 1.4 0 0 1-.114-.101 1.415 1.415 0 0 1-.148-.16c-.036-.04-.067-.082-.098-.121a1.604 1.604 0 0 1-.094-.153.938.938 0 0 1-.11-.277c-.015-.067-.034-.137-.034-.207V5.598c.05.047.11.09.164.136.031.024.058.051.09.075zM10.95.845c5.707 0 9.684 1.664 9.684 3.156 0 1.492-3.977 3.156-9.684 3.156-5.707 0-9.687-1.664-9.687-3.156 0-1.492 3.98-3.156 9.687-3.156zm0 21.472c-5.492 0-9.433-1.558-9.672-3.015a.224.224 0 0 0-.015-.055v-3.543c.008.008.02.012.027.02.098.086.195.172.309.254 1.59 1.199 4.757 2.128 9.351 2.128.332 0 .672-.007 1.008-.02.098-.003.2-.007.3-.015.13-.004.266-.008.395-.015-.011.16-.02.316-.02.472 0 .18.009.356.028.532.004.058.016.113.024.168.011.12.027.238.05.355.016.063.032.121.043.184.028.109.055.218.086.328.016.054.035.113.055.172.039.109.078.214.121.324.02.05.043.101.066.152.047.11.098.219.157.324l.07.133c.063.11.125.211.191.317.028.039.055.082.082.12.07.102.145.2.223.294.031.043.063.082.094.12.027.032.05.067.078.098-.984.11-2.008.168-3.05.168zm7.156.84a4.629 4.629 0 0 1-3.285-1.367c-.043-.047-.086-.098-.129-.144-.062-.07-.129-.137-.187-.211-.05-.063-.094-.125-.14-.192a3.484 3.484 0 0 1-.137-.195 1.899 1.899 0 0 1-.13-.211c-.038-.066-.077-.133-.113-.203l-.105-.219-.094-.23a4.605 4.605 0 0 1-.078-.211 6.92 6.92 0 0 1-.074-.27 1.59 1.59 0 0 1-.051-.195c-.023-.106-.039-.215-.055-.32-.007-.055-.02-.11-.027-.165a5.205 5.205 0 0 1-.027-.496 5.183 5.183 0 0 1 .082-.851c.023-.113.05-.227.078-.336l.023-.094c.028-.09.059-.183.09-.273.02-.047.035-.098.055-.145.027-.074.062-.148.094-.223.027-.062.058-.125.09-.187.03-.059.062-.117.093-.172.043-.074.086-.148.133-.219.027-.047.059-.09.086-.132a3.79 3.79 0 0 1 .187-.25c.024-.028.043-.055.067-.082a5.066 5.066 0 0 1 .281-.313c.207-.203.43-.387.668-.55.027-.02.059-.036.086-.055.09-.06.18-.114.273-.168.043-.024.086-.043.13-.067.081-.043.163-.082.25-.12.05-.02.1-.044.152-.063.082-.032.164-.063.246-.09.054-.02.11-.035.168-.055.082-.023.168-.043.25-.062a3.338 3.338 0 0 1 .457-.082c.05-.008.097-.016.148-.02a4.196 4.196 0 0 1 .871 0l.13.012c.1.011.194.027.292.047.047.007.094.015.14.027.102.023.204.047.305.078.032.008.067.016.102.027.121.04.242.086.36.133.058.024.113.051.167.074l.196.094.183.102c.055.031.106.062.157.093.062.043.125.082.187.125a4.626 4.626 0 0 1 1.988 3.797 4.637 4.637 0 0 1-4.633 4.63zm0 0"/>
    <path d="M20.191 16.441a.424.424 0 0 0-.597 0l-1.489 1.489-1.488-1.489a.424.424 0 0 0-.597 0 .424.424 0 0 0 0 .598l1.492 1.488-1.492 1.489a.42.42 0 0 0 0 .593.426.426 0 0 0 .3.125.424.424 0 0 0 .297-.125l1.488-1.488 1.489 1.488a.424.424 0 0 0 .297.125c.109 0 .214-.043.3-.125a.42.42 0 0 0 0-.593L18.7 18.527l1.492-1.488a.424.424 0 0 0 0-.598zm0 0"/>
</svg>
